src/assets/icons/index/more-2.svg

<svg width="26" height="32" viewBox="0 0 26 32" fill="none" xmlns="http://www.w3.org/2000/svg">
<path d="M16.5087 27.6229C15.8518 27.411 15.1473 27.7717 14.9354 28.4288L14.5898 29.5H11.3477L11.0022 28.4288C10.7902 27.7718 10.0859 27.411 9.4288 27.6229C8.7718 27.8348 8.41099 28.5393 8.62292 29.1963L9.24792 31.1338C9.41449 31.6501 9.89505 32 10.4375 32H15.5C16.0425 32 16.5231 31.6501 16.6897 31.1338L17.3147 29.1963C17.5265 28.5393 17.1657 27.8348 16.5087 27.6229Z" fill="#33D67B"/>
<path d="M12.9999 0.000140625C13.0088 -4.6875e-05 12.991 -4.6875e-05 12.9999 0.000140625V0.000140625Z" fill="#33D67B"/>
<path d="M21.5254 3.19476C19.2988 1.15325 16.2368 0.0205596 13 0.00012207C9.76317 0.0205596 6.70116 1.15325 4.47459 3.19476C2.15333 5.32308 0.874947 8.27253 0.874947 11.4999C0.874947 14.8488 2.3037 18.341 5.00671 21.5989C7.00772 24.0107 8.99867 25.4543 9.08242 25.5146C9.29504 25.6676 9.55048 25.75 9.81248 25.75H16.125C16.3854 25.75 16.6393 25.6687 16.8512 25.5174C16.9356 25.4572 18.942 24.014 20.9589 21.6027C23.6844 18.3441 25.1251 14.8507 25.1251 11.4999C25.125 8.27253 23.8467 5.32308 21.5254 3.19476ZM15.7029 23.25H10.2375C8.86729 22.1591 3.37496 17.4162 3.37496 11.4999C3.37496 6.37877 7.51054 2.51451 13 2.49988C18.4895 2.51451 22.625 6.37877 22.625 11.4999C22.625 17.4199 17.0763 22.1662 15.7029 23.25Z" fill="#33D67B"/>
<path d="M12.8749 8.93737C12.8803 8.9373 12.8694 8.9373 12.8749 8.93737V8.93737Z" fill="#33D67B"/>
<path d="M16.6999 10.1767C16.2839 9.88924 14.7605 8.94955 12.8749 8.93805C10.7761 8.95086 9.12093 10.1141 8.94161 10.2474C8.38761 10.6593 8.27236 11.4424 8.68424 11.9964C8.92955 12.3264 9.30649 12.5007 9.68837 12.5007C9.94762 12.5007 10.2092 12.4203 10.4332 12.2537C10.4404 12.2484 10.9237 11.9007 11.6249 11.6611V18.3131C11.6249 19.0035 12.1845 19.5631 12.8749 19.5631C13.5652 19.5631 14.1249 19.0035 14.1249 18.3131V11.6656C14.8223 11.9063 15.3055 12.2524 15.3129 12.2578L15.3074 12.2538L15.3115 12.2483C15.5207 12.406 15.7802 12.5007 16.0624 12.5007C16.7528 12.5007 17.3124 11.9411 17.3124 11.2507C17.3124 10.7934 17.0663 10.3947 16.6999 10.1767Z" fill="#33D67B"/>
</svg>

<?xml version="1.0" encoding="utf-8"?>
<!-- Generator: Adobe Illustrator 24.2.0, SVG Export Plug-In . SVG Version: 6.00 Build 0)  -->
<svg version="1.1" id="Ebene_1" xmlns="http://www.w3.org/2000/svg" xmlns:xlink="http://www.w3.org/1999/xlink" x="0px" y="0px"
	 viewBox="0 0 26 32" style="enable-background:new 0 0 26 32;" xml:space="preserve">
<style type="text/css">
	.st0{fill:#4070C5;}
</style>
<path class="st0" d="M16.5,27.6c-0.7-0.2-1.4,0.1-1.6,0.8l-0.3,1.1h-3.2L11,28.4c-0.2-0.7-0.9-1-1.6-0.8c-0.7,0.2-1,0.9-0.8,1.6
	l0.6,1.9c0.2,0.5,0.6,0.9,1.2,0.9h5.1c0.5,0,1-0.3,1.2-0.9l0.6-1.9C17.5,28.5,17.2,27.8,16.5,27.6z"/>
<path class="st0" d="M13,0C13,0,13,0,13,0L13,0z"/>
<path class="st0" d="M21.5,3.2C19.3,1.2,16.2,0,13,0C9.8,0,6.7,1.2,4.5,3.2c-2.3,2.1-3.6,5.1-3.6,8.3c0,3.3,1.4,6.8,4.1,10.1
	c2,2.4,4,3.9,4.1,3.9c0.2,0.2,0.5,0.2,0.7,0.2h6.3c0.3,0,0.5-0.1,0.7-0.2c0.1-0.1,2.1-1.5,4.1-3.9c2.7-3.3,4.2-6.8,4.2-10.1
	C25.1,8.3,23.8,5.3,21.5,3.2z M15.7,23.2h-5.5c-1.4-1.1-6.9-5.8-6.9-11.8c0-5.1,4.1-9,9.6-9c5.5,0,9.6,3.9,9.6,9
	C22.6,17.4,17.1,22.2,15.7,23.2z"/>
<path class="st0" d="M12.9,8.9C12.9,8.9,12.9,8.9,12.9,8.9L12.9,8.9z"/>
<path class="st0" d="M16.7,10.2c-0.4-0.3-1.9-1.2-3.8-1.2c-2.1,0-3.8,1.2-3.9,1.3c-0.6,0.4-0.7,1.2-0.3,1.7c0.2,0.3,0.6,0.5,1,0.5
	c0.3,0,0.5-0.1,0.7-0.2c0,0,0.5-0.4,1.2-0.6v6.7c0,0.7,0.6,1.2,1.2,1.2c0.7,0,1.2-0.6,1.2-1.2v-6.6c0.7,0.2,1.2,0.6,1.2,0.6l0,0l0,0
	c0.2,0.2,0.5,0.3,0.8,0.3c0.7,0,1.2-0.6,1.2-1.2C17.3,10.8,17.1,10.4,16.7,10.2z"/>
</svg>
